icons/alert.svg

<svg width="17" height="16" viewBox="0 0 17 16" fill="none" xmlns="http://www.w3.org/2000/svg">
<path fill-rule="evenodd" clip-rule="evenodd" d="M8.49385 0.166687C4.16893 0.166687 0.666687 3.67677 0.666687 8.00169C0.666687 12.3266 4.16893 15.8367 8.49385 15.8367C12.8266 15.8367 16.3367 12.3266 16.3367 8.00169C16.3367 3.67677 12.8266 0.166687 8.49385 0.166687ZM9.28518 4.08421H7.71819V8.78521H9.28518V4.08421ZM9.28518 10.3522H7.71819V11.9192H9.28518V10.3522ZM2.23371 8.0017C2.23371 11.4648 5.03864 14.2697 8.5017 14.2697C11.9648 14.2697 14.7697 11.4648 14.7697 8.0017C14.7697 4.53864 11.9648 1.73371 8.5017 1.73371C5.03864 1.73371 2.23371 4.53864 2.23371 8.0017Z" fill="#A2A9B1"/>
</svg>

<svg width="17" height="16" fill="none" xmlns="http://www.w3.org/2000/svg"><path fill-rule="evenodd" clip-rule="evenodd" d="M8.494.167C4.169.167.667 3.677.667 8.002s3.502 7.835 7.827 7.835c4.333 0 7.843-3.51 7.843-7.835S12.827.167 8.494.167zm.791 3.917H7.718v4.701h1.567v-4.7zm0 6.268H7.718v1.567h1.567v-1.567zm-7.051-2.35a6.266 6.266 0 0 0 6.268 6.268 6.266 6.266 0 0 0 6.268-6.268 6.266 6.266 0 0 0-6.268-6.268 6.266 6.266 0 0 0-6.268 6.268z" fill="#A2A9B1"/></svg>
